rospo-dark/small/status/user-status-pending-symbolic.svg

<?xml version="1.0" encoding="UTF-8" standalone="no"?>
<svg
   xmlns:dc="http://purl.org/dc/elements/1.1/"
   xmlns:cc="http://creativecommons.org/ns#"
   xmlns:rdf="http://www.w3.org/1999/02/22-rdf-syntax-ns#"
   xmlns:svg="http://www.w3.org/2000/svg"
   xmlns="http://www.w3.org/2000/svg"
   xmlns:sodipodi="http://sodipodi.sourceforge.net/DTD/sodipodi-0.dtd"
   xmlns:inkscape="http://www.inkscape.org/namespaces/inkscape"
   width="22"
   height="22"
   version="1.1"
   id="svg6"
   sodipodi:docname="user-status-pending-symbolic.svg"
   inkscape:version="0.92.1 r">
  <metadata
     id="metadata12">
    <rdf:RDF>
      <cc:Work
         rdf:about="">
        <dc:format>image/svg+xml</dc:format>
        <dc:type
           rdf:resource="http://purl.org/dc/dcmitype/StillImage" />
      </cc:Work>
    </rdf:RDF>
  </metadata>
  <defs
     id="defs10" />
  <sodipodi:namedview
     pagecolor="#ffffff"
     bordercolor="#666666"
     borderopacity="1"
     objecttolerance="10"
     gridtolerance="10"
     guidetolerance="10"
     inkscape:pageopacity="0"
     inkscape:pageshadow="2"
     inkscape:window-width="1111"
     inkscape:window-height="480"
     id="namedview8"
     showgrid="false"
     inkscape:zoom="10.727273"
     inkscape:cx="11"
     inkscape:cy="11"
     inkscape:window-x="0"
     inkscape:window-y="0"
     inkscape:window-maximized="0"
     inkscape:current-layer="svg6" />
  <g
     id="g824"
     transform="translate(3,2.5)">
    <path
       id="path2"
       d="M 3,6 C 1.89,6 1,6.89 1,8 1,9.1 1.89,10 3,10 4.11,10 5,9.1 5,8 5,6.89 4.11,6 3,6 Z M 8,6 C 6.89,6 6,6.89 6,8 6,9.1 6.89,10 8,10 9.11,10 10,9.1 10,8 10,6.89 9.11,6 8,6 Z m 5,0 c -1.11,0 -2,0.89 -2,2 0,1.1 0.89,2 2,2 1.11,0 2,-0.9 2,-2 0,-1.11 -0.89,-2 -2,-2 z"
       style="fill:#d3dae3"
       inkscape:connector-curvature="0" />
    <path
       id="path4"
       d="M 8,2 C 6.34,2 5,3.34 5,5 5,5 5,5 5,5 h 6 c 0,0 0,0 0,0 C 11,3.34 9.66,2 8,2 Z M 3.84,11 C 2.01,12.19 2,14 2,14 v 1 h 12 v -1 c 0,0 -0.01,-1.81 -1.84,-3 z"
       style="opacity:0.3;fill:#d3dae3"
       inkscape:connector-curvature="0" />
  </g>
</svg>

<svg xmlns="http://www.w3.org/2000/svg" width="16" height="16" version="1.1">
 <path style="fill:#5c616c" d="M 3,6 C 1.89,6 1,6.89 1,8 1,9.1 1.89,10 3,10 4.11,10 5,9.1 5,8 5,6.89 4.11,6 3,6 Z M 8,6 C 6.89,6 6,6.89 6,8 6,9.1 6.89,10 8,10 9.11,10 10,9.1 10,8 10,6.89 9.11,6 8,6 Z M 13,6 C 11.89,6 11,6.89 11,8 11,9.1 11.89,10 13,10 14.11,10 15,9.1 15,8 15,6.89 14.11,6 13,6 Z"/>
 <path style="opacity:0.3;fill:#5c616c" d="M 8,2 C 6.34,2 5,3.34 5,5 5,5 5,5 5,5 H 11 C 11,5 11,5 11,5 11,3.34 9.66,2 8,2 Z M 3.84,11 C 2.01,12.19 2,14 2,14 V 15 H 14 V 14 C 14,14 13.99,12.19 12.16,11 Z"/>
</svg>
